assets/img/logo-text.svg

<svg width="81" height="26" viewBox="0 0 81 26" fill="none" xmlns="http://www.w3.org/2000/svg">
<path d="M0.0128908 13.4118H9.97893V26H8.02378V15.1671H1.96804V26H0.0128908V13.4118Z" fill="white"/>
<path d="M15.3812 22.9327L22.0768 13.4118H23.6174V26H21.6619V16.6564L15.0698 26H13.4261V13.4118H15.3812V22.9327Z" fill="white"/>
<path d="M27.059 26V13.4118H32.2148C32.769 13.4118 33.2763 13.5301 33.7374 13.7665C34.2102 14.0029 34.6142 14.3161 34.9485 14.7061C35.2835 15.0843 35.5426 15.5217 35.7274 16.0181C35.9231 16.5028 36.0217 16.9992 36.0217 17.5074C36.0217 18.0393 35.9293 18.5535 35.7446 19.0499C35.5716 19.5345 35.3234 19.9719 35.0009 20.3619C34.6776 20.7401 34.2854 21.0475 33.8242 21.2839C33.3741 21.5085 32.8724 21.6207 32.3189 21.6207H28.9965V26H27.059ZM28.9965 19.8655H32.1975C32.4746 19.8655 32.7228 19.8064 32.942 19.6882C33.1722 19.57 33.3686 19.4045 33.5299 19.1918C33.6912 18.979 33.818 18.7308 33.9104 18.4471C34.0028 18.1634 34.049 17.8502 34.049 17.5074C34.049 17.1529 33.9973 16.8337 33.8932 16.5501C33.7898 16.2664 33.645 16.024 33.461 15.8231C33.2763 15.6104 33.0626 15.4507 32.8207 15.3444C32.5897 15.2262 32.3478 15.1671 32.0942 15.1671H28.9965V19.8655Z" fill="white"/>
<path d="M46.9047 24.2448V26H38.4783V13.4118H46.7489V15.1671H40.4165V18.7485H45.9011V20.3974H40.4165V24.2448H46.9047Z" fill="white"/>
<path d="M58.5398 15.1671H54.4565V26H52.501V15.1671H48.4005V13.4118H58.5398V15.1671Z" fill="white"/>
<path d="M69.8068 15.1671H65.7235V26H63.7687V15.1671H59.6681V13.4118H69.8068V15.1671Z" fill="white"/>
<path d="M74.4594 13.4118H76.155L81 26H78.9583L77.6604 22.5782H72.9196L71.6396 26H69.5807L74.4594 13.4118ZM77.28 21.1066L75.3072 15.699L73.2656 21.1066H77.28Z" fill="white"/>
<path d="M4.51167 3.09863H3.86416C3.82587 2.90676 3.75885 2.7382 3.66312 2.59295C3.56913 2.4477 3.45425 2.32577 3.31848 2.22714C3.18445 2.12672 3.03563 2.05141 2.87201 2.0012C2.70839 1.95099 2.53781 1.92588 2.36027 1.92588C2.03652 1.92588 1.74322 2.01016 1.48039 2.17872C1.2193 2.34728 1.0113 2.59564 0.856382 2.92379C0.703208 3.25195 0.626621 3.65452 0.626621 4.13151C0.626621 4.60849 0.703208 5.01107 0.856382 5.33922C1.0113 5.66737 1.2193 5.91573 1.48039 6.08429C1.74322 6.25285 2.03652 6.33713 2.36027 6.33713C2.53781 6.33713 2.70839 6.31202 2.87201 6.26181C3.03563 6.21161 3.18445 6.13719 3.31848 6.03856C3.45425 5.93814 3.56913 5.81531 3.66312 5.67006C3.75885 5.52302 3.82587 5.35446 3.86416 5.16438H4.51167C4.46293 5.44591 4.37416 5.69786 4.24536 5.92021C4.11655 6.14257 3.95641 6.33175 3.76495 6.48776C3.57348 6.64197 3.35851 6.75942 3.12005 6.84012C2.88333 6.92081 2.63007 6.96116 2.36027 6.96116C1.90423 6.96116 1.49867 6.84639 1.14358 6.61687C0.788498 6.38734 0.509129 6.06098 0.305478 5.63778C0.101826 5.21459 0 4.7125 0 4.13151C0 3.55051 0.101826 3.04842 0.305478 2.62523C0.509129 2.20204 0.788498 1.87568 1.14358 1.64615C1.49867 1.41662 1.90423 1.30185 2.36027 1.30185C2.63007 1.30185 2.88333 1.3422 3.12005 1.4229C3.35851 1.50359 3.57348 1.62194 3.76495 1.77795C3.95641 1.93216 4.11655 2.12045 4.24536 2.3428C4.37416 2.56336 4.46293 2.81531 4.51167 3.09863Z" fill="white"/>
<path d="M5.558 6.88584V1.37717H8.78509V1.96892H6.2055V3.83025H8.61799V4.422H6.2055V6.29409H8.82687V6.88584H5.558Z" fill="white"/>
<path d="M9.65975 1.96892V1.37717H13.6701V1.96892H11.9887V6.88584H11.3412V1.96892H9.65975Z" fill="white"/>
<path d="M15.1499 3.69038H16.6746C17.0576 3.69038 17.3805 3.75494 17.6433 3.88405C17.9079 4.01316 18.108 4.19516 18.2438 4.43007C18.3813 4.66498 18.4501 4.94203 18.4501 5.26122C18.4501 5.5804 18.3813 5.86193 18.2438 6.10581C18.108 6.34968 17.9079 6.54066 17.6433 6.67873C17.3805 6.81681 17.0576 6.88584 16.6746 6.88584H14.6695V1.37717H15.317V6.30485H16.6746C16.9183 6.30485 17.1246 6.25464 17.2934 6.15422C17.464 6.05201 17.5928 5.92111 17.6798 5.76152C17.7686 5.60013 17.813 5.42977 17.813 5.25046C17.813 4.98686 17.7147 4.76002 17.518 4.56994C17.3213 4.37807 17.0402 4.28213 16.6746 4.28213H15.1499V3.69038Z" fill="white"/>
<path d="M24.6843 6.88584L22.8462 4.35745H22.1882V6.88584H21.5407V1.37717H22.1882V3.7657H22.4702L24.6112 1.37717H25.384L23.2222 3.79797L25.4571 6.88584H24.6843Z" fill="white"/>
<path d="M30.5543 4.13151C30.5543 4.7125 30.4525 5.21459 30.2488 5.63778C30.0452 6.06098 29.7658 6.38734 29.4107 6.61687C29.0556 6.84639 28.6501 6.96116 28.194 6.96116C27.738 6.96116 27.3324 6.84639 26.9773 6.61687C26.6222 6.38734 26.3429 6.06098 26.1392 5.63778C25.9356 5.21459 25.8337 4.7125 25.8337 4.13151C25.8337 3.55051 25.9356 3.04842 26.1392 2.62523C26.3429 2.20204 26.6222 1.87568 26.9773 1.64615C27.3324 1.41662 27.738 1.30185 28.194 1.30185C28.6501 1.30185 29.0556 1.41662 29.4107 1.64615C29.7658 1.87568 30.0452 2.20204 30.2488 2.62523C30.4525 3.04842 30.5543 3.55051 30.5543 4.13151ZM29.9277 4.13151C29.9277 3.65452 29.8502 3.25195 29.6953 2.92379C29.5421 2.59564 29.3341 2.34728 29.0713 2.17872C28.8102 2.01016 28.5178 1.92588 28.194 1.92588C27.8703 1.92588 27.577 2.01016 27.3141 2.17872C27.053 2.34728 26.845 2.59564 26.6901 2.92379C26.537 3.25195 26.4604 3.65452 26.4604 4.13151C26.4604 4.60849 26.537 5.01107 26.6901 5.33922C26.845 5.66737 27.053 5.91573 27.3141 6.08429C27.577 6.25285 27.8703 6.33713 28.194 6.33713C28.5178 6.33713 28.8102 6.25285 29.0713 6.08429C29.3341 5.91573 29.5421 5.66737 29.6953 5.33922C29.8502 5.01107 29.9277 4.60849 29.9277 4.13151Z" fill="white"/>
<path d="M31.643 1.37717H32.4159L34.2331 5.9498H34.2957L36.1129 1.37717H36.8858V6.88584H36.28V2.70054H36.2278L34.5568 6.88584H33.972L32.301 2.70054H32.2488V6.88584H31.643V1.37717Z" fill="white"/>
<path d="M42.184 1.37717V6.88584H41.5365V1.96892H38.842V6.88584H38.1945V1.37717H42.184Z" fill="white"/>
<path d="M43.7094 6.88584H43.0306L44.994 1.37717H45.6624L47.6258 6.88584H46.9469L45.3491 2.24866H45.3073L43.7094 6.88584ZM43.9601 4.73402H46.6963V5.32577H43.9601V4.73402Z" fill="white"/>
<path d="M48.4587 6.88584V1.37717H49.1062V3.83025H51.9573V1.37717H52.6048V6.88584H51.9573V4.422H49.1062V6.88584H48.4587Z" fill="white"/>
<path d="M53.9011 1.37717H54.5382V5.7131H54.5904L57.5146 1.37717H58.1413V6.88584H57.4938V2.56067H57.4415L54.5278 6.88584H53.9011V1.37717Z" fill="white"/>
<path d="M59.4369 1.37717H60.074V5.7131H60.1262L63.0504 1.37717H63.6771V6.88584H63.0296V2.56067H62.9773L60.0636 6.88584H59.4369V1.37717ZM62.0687 0H62.6431C62.6431 0.290497 62.5457 0.528094 62.3507 0.712793C62.1558 0.897491 61.8912 0.98984 61.557 0.98984C61.228 0.98984 60.9661 0.897491 60.7711 0.712793C60.5779 0.528094 60.4813 0.290497 60.4813 0H61.0557C61.0557 0.139869 61.0931 0.262702 61.168 0.3685C61.2446 0.474298 61.3742 0.527197 61.557 0.527197C61.7398 0.527197 61.8703 0.474298 61.9486 0.3685C62.0287 0.262702 62.0687 0.139869 62.0687 0Z" fill="white"/>
</svg>

<svg width="81" height="26" fill="none" xmlns="http://www.w3.org/2000/svg"><path d="M.013 13.412h9.966V26H8.024V15.167H1.968V26H.013V13.412ZM15.381 22.933l6.696-9.521h1.54V26h-1.955v-9.344L15.07 26h-1.644V13.412h1.955v9.52ZM27.059 26V13.412h5.156c.554 0 1.061.118 1.522.354.473.237.877.55 1.212.94.334.378.594.816.778 1.312.196.485.295.981.295 1.49 0 .531-.093 1.046-.277 1.542A4.323 4.323 0 0 1 35 20.362a3.824 3.824 0 0 1-1.177.922c-.45.225-.952.337-1.505.337h-3.323V26H27.06Zm1.938-6.134h3.2c.278 0 .526-.06.745-.178.23-.118.427-.284.588-.496.161-.213.288-.461.38-.745.093-.284.139-.597.139-.94 0-.354-.052-.673-.156-.957a2.156 2.156 0 0 0-.432-.727 1.805 1.805 0 0 0-.64-.479 1.573 1.573 0 0 0-.727-.177h-3.098v4.699ZM46.905 24.245V26h-8.427V13.412h8.27v1.755h-6.331v3.582H45.9v1.648h-5.485v3.848h6.489ZM58.54 15.167h-4.084V26h-1.955V15.167h-4.1v-1.755H58.54v1.755ZM69.807 15.167h-4.084V26H63.77V15.167h-4.1v-1.755h10.138v1.755ZM74.46 13.412h1.695L81 26h-2.042l-1.298-3.422h-4.74L71.64 26h-2.06l4.88-12.588Zm2.82 7.695-1.973-5.408-2.041 5.408h4.014ZM4.512 3.099h-.648A1.41 1.41 0 0 0 2.872 2a1.735 1.735 0 0 0-.512-.075c-.323 0-.617.084-.88.253-.26.168-.469.417-.624.745-.153.328-.23.73-.23 1.208 0 .476.077.88.23 1.207.155.328.363.577.624.745.263.169.557.253.88.253.178 0 .348-.025.512-.075a1.48 1.48 0 0 0 .446-.223 1.4 1.4 0 0 0 .546-.875h.648a2.265 2.265 0 0 1-.267.756 2.05 2.05 0 0 1-.48.568 2.084 2.084 0 0 1-.645.352 2.34 2.34 0 0 1-.76.121c-.456 0-.861-.115-1.216-.344a2.341 2.341 0 0 1-.839-.98C.102 5.216 0 4.714 0 4.133c0-.581.102-1.084.305-1.507.204-.423.483-.75.839-.979.355-.23.76-.344 1.216-.344.27 0 .523.04.76.12a2.055 2.055 0 0 1 1.125.92c.13.221.218.473.267.757ZM5.558 6.886V1.377h3.227v.592h-2.58V3.83h2.413v.592H6.205v1.872h2.622v.592H5.558ZM9.66 1.969v-.592h4.01v.592H11.99v4.917h-.648V1.969H9.66ZM15.15 3.69h1.525c.383 0 .706.065.968.194.265.13.465.311.6.546.138.235.207.512.207.831 0 .32-.069.6-.206.845a1.418 1.418 0 0 1-.6.573c-.263.138-.586.207-.97.207H14.67V1.377h.648v4.928h1.358c.243 0 .45-.05.618-.15a1.045 1.045 0 0 0 .52-.904.914.914 0 0 0-.295-.681c-.197-.192-.478-.288-.843-.288H15.15V3.69ZM24.684 6.886l-1.838-2.529h-.658v2.529h-.647V1.377h.647v2.389h.282l2.141-2.389h.773l-2.162 2.421 2.235 3.088h-.773ZM30.554 4.132c0 .58-.101 1.083-.305 1.506a2.34 2.34 0 0 1-.838.979c-.355.23-.76.344-1.217.344-.456 0-.862-.115-1.217-.344a2.341 2.341 0 0 1-.838-.98c-.203-.422-.305-.924-.305-1.505 0-.581.102-1.084.305-1.507.204-.423.483-.75.838-.979.355-.23.761-.344 1.217-.344.456 0 .862.115 1.217.344.355.23.634.556.838.98.204.422.305.925.305 1.506Zm-.626 0c0-.477-.078-.88-.233-1.208a1.72 1.72 0 0 0-.624-.745 1.583 1.583 0 0 0-.877-.253c-.324 0-.617.084-.88.253-.261.168-.469.417-.624.745-.153.328-.23.73-.23 1.208 0 .476.077.88.23 1.207.155.328.363.577.624.745.263.169.556.253.88.253.324 0 .616-.084.877-.253a1.72 1.72 0 0 0 .624-.745c.155-.328.233-.73.233-1.207ZM31.643 1.377h.773l1.817 4.573h.063l1.817-4.573h.773v5.509h-.606V2.7h-.052l-1.671 4.185h-.585L32.301 2.7h-.052v4.185h-.606V1.377ZM42.184 1.377v5.509h-.648V1.969h-2.694v4.917h-.648V1.377h3.99ZM43.71 6.886h-.68l1.964-5.509h.668l1.964 5.509h-.68L45.35 2.249h-.042L43.71 6.886Zm.25-2.152h2.736v.592H43.96v-.592ZM48.459 6.886V1.377h.647V3.83h2.851V1.377h.648v5.509h-.648V4.422h-2.85v2.464h-.648ZM53.901 1.377h.637v4.336h.052l2.925-4.336h.626v5.509h-.647V2.56h-.053l-2.913 4.325H53.9V1.377ZM59.437 1.377h.637v4.336h.052l2.924-4.336h.627v5.509h-.647V2.56h-.053l-2.913 4.325h-.627V1.377ZM62.069 0h.574c0 .29-.097.528-.292.713-.195.184-.46.277-.794.277-.329 0-.59-.093-.786-.277a.942.942 0 0 1-.29-.713h.575c0 .14.037.263.112.368.077.106.206.16.389.16.183 0 .313-.054.392-.16a.594.594 0 0 0 .12-.368Z" fill="#fff"/></svg>
